icons/desktop/20/bike-20.svg

<svg width="20" height="20" viewBox="0 0 20 20" fill="none" xmlns="http://www.w3.org/2000/svg">
<path fill-rule="evenodd" clip-rule="evenodd" d="M12.8447 3.25C13.692 3.25 14.4341 3.81814 14.6553 4.63672L14.6562 4.6377L15.8301 9.00391C15.8864 9.00155 15.9431 9 16 9C18.2091 9 20 10.7909 20 13C20 15.2091 18.2091 17 16 17C13.7909 17 12 15.2091 12 13C12 11.4622 12.868 10.1274 14.1406 9.45801L13.998 8.92969C12.7257 8.79958 11.5467 8.75001 10.4824 8.75C9.16992 8.75 7.9578 8.82799 6.86328 8.94336L6.44629 9.83594C7.39121 10.5676 8 11.7125 8 13C7.99998 15.2091 6.20913 17 4 17C1.79087 17 1.64931e-05 15.2091 0 13C0 10.7909 1.79086 9 4 9C4.29543 9 4.58317 9.03298 4.86035 9.09375L5.25 8.26172V6.18457C4.98417 6.15817 4.70501 6.1256 4.41504 6.07715C4.17606 6.03715 4.00003 5.82401 4 5.58203V4.41895C4.00001 4.17696 4.16726 3.96578 4.40625 3.92578C5.00419 3.82481 5.70912 3.75098 6.5 3.75098C6.934 3.75098 7.43342 3.77289 7.98242 3.83789C8.56522 3.90708 9 4.41414 9 5C8.99999 5.5869 8.57114 6.09299 7.98828 6.16211C7.67976 6.19897 7.34948 6.22549 7 6.23926V7.16895C8.06481 7.06638 9.23013 7 10.4824 7C11.4136 7.00001 12.4278 7.03616 13.5127 7.12695L12.9658 5.09277C12.9508 5.03773 12.9012 5 12.8447 5H11.875C11.3918 5 11 4.60824 11 4.125C11 3.64175 11.3918 3.25 11.875 3.25H12.8447ZM4 10.75C2.75736 10.75 1.75 11.7574 1.75 13C1.75002 14.2426 2.75737 15.25 4 15.25C5.24263 15.25 6.24998 14.2426 6.25 13C6.25 12.4207 6.02954 11.8939 5.66992 11.4951L4.79297 13.3711C4.58814 13.8087 4.06658 13.9977 3.62891 13.793C3.19125 13.5882 3.00226 13.0666 3.20703 12.6289L4.08398 10.7539C4.05609 10.7529 4.02815 10.75 4 10.75ZM16.8447 12.7725C16.9703 13.239 16.694 13.7191 16.2275 13.8447C15.761 13.9703 15.2809 13.694 15.1553 13.2275L14.6162 11.2266C14.0892 11.6384 13.75 12.2794 13.75 13C13.75 14.2426 14.7574 15.25 16 15.25C17.2426 15.25 18.25 14.2426 18.25 13C18.25 11.8615 17.404 10.9232 16.3066 10.7734L16.8447 12.7725Z" fill="black"/>
</svg>

<!-- This Source Code Form is subject to the terms of the Mozilla Public
   - License, v. 2.0. If a copy of the MPL was not distributed with this
   - file, You can obtain one at http://mozilla.org/MPL/2.0/. -->
<svg xmlns="http://www.w3.org/2000/svg" width="20" height="20" fill="context-fill" fill-opacity="context-fill-opacity" viewBox="0 0 20 20">
    <path fill-rule="evenodd" d="M12.845 3.25c.847 0 1.59.568 1.81 1.387h.001l1.174 4.367Q15.914 9 16 9a4 4 0 1 1-1.86.458l-.142-.528a35 35 0 0 0-3.516-.18c-1.312 0-2.524.078-3.619.193l-.417.893a4 4 0 1 1-1.586-.742l.39-.832V6.185a13 13 0 0 1-.835-.108A.5.5 0 0 1 4 5.582V4.419c0-.242.167-.453.406-.493a12.6 12.6 0 0 1 3.576-.088C8.565 3.908 9 4.414 9 5c0 .587-.429 1.093-1.012 1.162q-.463.056-.988.077v.93a36.3 36.3 0 0 1 6.513-.042l-.547-2.034A.125.125 0 0 0 12.845 5h-.97a.875.875 0 0 1 0-1.75zM4 10.75a2.25 2.25 0 1 0 1.67.745l-.877 1.876a.876.876 0 0 1-1.586-.742l.877-1.875Q4.042 10.75 4 10.75m12.845 2.023a.875.875 0 0 1-1.69.454l-.539-2A2.25 2.25 0 1 0 18.25 13a2.25 2.25 0 0 0-1.943-2.227z" clip-rule="evenodd" />
</svg>
